common/resources/fonts/svg/pending-inverted.svg

<?xml version="1.0" encoding="UTF-8"?>
<svg width="1024px" height="1024px" viewBox="0 0 1024 1024" version="1.1" xmlns="http://www.w3.org/2000/svg" xmlns:xlink="http://www.w3.org/1999/xlink">
    <!-- Generator: Sketch 47.1 (45422) - http://www.bohemiancoding.com/sketch -->
    <title>pending-inverted</title>
    <desc>Created with Sketch.</desc>
    <defs></defs>
    <g id="Page-1" stroke="none" stroke-width="1" fill="none" fill-rule="evenodd">
        <g id="pending-inverted" fill="#000000">
            <path d="M512,78 C589.639277,78 661.454531,97.2602241 727.447917,135.78125 C793.441302,174.302276 845.697724,226.558698 884.21875,292.552083 C922.739776,358.545469 942,430.360723 942,508 C942,585.639277 922.739776,657.454531 884.21875,723.447917 C845.697724,789.441302 793.441302,841.697724 727.447917,880.21875 C661.454531,918.739776 589.639277,938 512,938 C434.360723,938 362.545469,918.739776 296.552083,880.21875 C230.558698,841.697724 178.302276,789.441302 139.78125,723.447917 C101.260224,657.454531 82,585.639277 82,508 C82,430.360723 101.260224,358.545469 139.78125,292.552083 C178.302276,226.558698 230.558698,174.302276 296.552083,135.78125 C362.545469,97.2602241 434.360723,78 512,78 Z M512,866.333333 C609.424447,866.333333 693.501819,830.967455 764.234637,760.234637 C834.967455,689.501819 870.333333,605.424447 870.333333,508 C870.333333,410.575553 834.967455,326.498181 764.234637,255.765363 C693.501819,185.032545 609.424447,149.666667 512,149.666667 C414.575553,149.666667 330.498181,185.032545 259.765363,255.765363 C189.032545,326.498181 153.666667,410.575553 153.666667,508 C153.666667,605.424447 189.032545,689.501819 259.765363,760.234637 C330.498181,830.967455 414.575553,866.333333 512,866.333333 Z M648.169178,656.715853 C640.063161,664.905325 630.471186,669 619.392963,669 C608.314741,669 598.722765,664.905325 590.616749,656.715853 L462.54233,546.158526 C451.193907,535.044242 446.060174,521.882787 447.140976,506.673766 L456.057549,283.804235 C456.59795,270.935064 461.191291,260.113423 469.837708,251.338988 C478.484126,242.564553 488.751593,238.469879 500.640417,239.054841 C511.98884,239.639803 521.580815,244.319432 529.416631,253.093867 C537.252447,261.868301 541.440493,272.104989 541.980894,283.804235 L550.08687,482.982911 L650.600971,590.030481 C658.706987,599.389878 662.489738,610.650234 661.949337,623.811886 C661.408936,636.973539 656.815595,647.941418 648.169178,656.715853 Z" id="time"></path>
        </g>
    </g>
</svg>

<svg width="1024" height="1024" viewBox="0 0 1024 1024">
    <path d="M512 78c77.64 0 149.455 19.26 215.448 57.781s118.25 90.778 156.77 156.771C922.74 358.545 942 430.361 942 508c0 77.64-19.26 149.455-57.781 215.448s-90.778 118.25-156.771 156.77C661.455 918.74 589.639 938 512 938c-77.64 0-149.455-19.26-215.448-57.781s-118.25-90.778-156.77-156.771C101.26 657.455 82 585.639 82 508c0-77.64 19.26-149.455 57.781-215.448s90.778-118.25 156.771-156.77C362.545 97.26 434.361 78 512 78zm0 788.333c97.424 0 181.502-35.366 252.235-106.098C834.967 689.502 870.333 605.425 870.333 508c0-97.424-35.366-181.502-106.098-252.235C693.502 185.033 609.425 149.667 512 149.667c-97.424 0-181.502 35.366-252.235 106.098C189.033 326.498 153.667 410.575 153.667 508c0 97.424 35.366 181.502 106.098 252.235C330.498 830.967 414.575 866.333 512 866.333zm136.17-209.617c-8.108 8.19-17.7 12.284-28.778 12.284s-20.67-4.095-28.776-12.284L462.542 546.159c-11.348-11.115-16.482-24.276-15.401-39.485l8.917-222.87c.54-12.869 5.133-23.69 13.78-32.465 8.646-8.774 18.914-12.87 30.802-12.284 11.349.585 20.94 5.264 28.777 14.039 7.835 8.774 12.023 19.011 12.564 30.71l8.106 199.179L650.6 590.03c8.106 9.36 11.889 20.62 11.348 33.782-.54 13.162-5.133 24.13-13.78 32.904z" fill-rule="evenodd"/>
</svg>
